X:10
T:Church Street
Z: id:dc-polka-9
M:2/4
L:1/8
K:G Major
BG D>D|Ec cA/B/|cE FE|Dd/c/ d/e/d/c/|!
BG D>D|Ec cA/B/|c/B/A/G/ F/D/E/F/|GB G2:|!
g2 f2|c3 d|e>f ed|B3 c|!
d>e d/c/B|A3 B/A/|[1 GA Bc|d3 e/f/:|[2 Gg fa|g2 g2|]!

